src/static/logos/stacksmith.svg

<?xml version="1.0" encoding="UTF-8" standalone="no"?>
<svg width="256px" height="280px" viewBox="0 0 256 280" version="1.1" xmlns="http://www.w3.org/2000/svg" xmlns:xlink="http://www.w3.org/1999/xlink" preserveAspectRatio="xMidYMid">
    <defs>
        <path id="path-1" d="M25.484,51.303 L102.516,6.828 C118.286,-2.276 137.715,-2.276 153.484,6.828 L230.516,51.303 C246.286,60.408 256,77.233 256,95.442 L256,184.392 C256,202.601 246.286,219.426 230.516,228.531 L153.484,273.006 C137.715,282.11 118.286,282.11 102.516,273.006 L25.484,228.531 C9.715,219.426 0,202.601 0,184.392 L0,95.442 C0,77.233 9.715,60.408 25.484,51.303"></path>
    </defs>
	<g>
		<mask id="mask-2" fill="white">
			<use xlink:href="#path-1"></use>
		</mask>
		<use fill="#FFFFFF" xlink:href="#path-1"></use>
		<path d="M25.484,51.303 L102.516,6.828 C118.286,-2.276 137.715,-2.276 153.484,6.828 L230.516,51.303 C246.286,60.408 256,77.233 256,95.442 L256,184.392 C256,202.601 246.286,219.426 230.516,228.531 L153.484,273.006 C137.715,282.11 118.286,282.11 102.516,273.006 L25.484,228.531 C9.715,219.426 0,202.601 0,184.392 L0,95.442 C0,77.233 9.715,60.408 25.484,51.303" fill="#2F4154" mask="url(#mask-2)"></path>
		<path d="M151.3329,31.2332 L25.8299,104.4142 L70.3749,178.6552 L194.8169,105.8282 L151.3329,31.2332 L151.3329,31.2332 Z M197.1133,97.9412 L158.4373,32.4832 L177.1763,37.7342 C177.2673,37.7592 177.3443,37.8182 177.3923,37.8992 L201.2833,77.9522 C201.3313,78.0312 201.3463,78.1262 201.3273,78.2162 L197.1133,97.9412 L197.1133,97.9412 Z M64.188,75.7779 L108.202,50.6769 L97.597,43.4299 L64.718,63.4039 L64.188,75.7779 L64.188,75.7779 Z M24.014,111.9712 L61.427,176.3842 L43.69,172.2402 C43.346,172.1602 43.049,171.9452 42.865,171.6442 L19.223,132.9882 C19.04,132.6882 18.984,132.3272 19.068,131.9852 L24.014,111.9712 L24.014,111.9712 Z M171.3549,152.0629 L129.4799,194.9109 L146.6669,224.3799 L188.3819,181.3549 L171.3549,152.0629 L171.3549,152.0629 Z M159.9944,132.5193 L109.7934,161.1553 L126.8014,190.3173 L168.5574,147.2493 L159.9944,132.5193 L159.9944,132.5193 Z M191.1615,186.1364 L149.3275,228.9424 L163.7365,253.6484 L205.4165,210.6594 L191.1615,186.1364 L191.1615,186.1364 Z M208.1766,215.408 L166.3786,258.178 L171.5276,266.905 L221.4296,238.094 L208.1766,215.408 L208.1766,215.408 Z" fill="#FFFFFF" mask="url(#mask-2)"></path>
	</g>
</svg>

<svg width="256" height="280" xmlns="http://www.w3.org/2000/svg" xmlns:xlink="http://www.w3.org/1999/xlink" preserveAspectRatio="xMidYMid"><defs><path id="a" d="M25.484 51.303l77.032-44.475a50.97 50.97 0 0150.968 0l77.032 44.475A50.967 50.967 0 01256 95.442v88.95a50.967 50.967 0 01-25.484 44.139l-77.032 44.475a50.97 50.97 0 01-50.968 0l-77.032-44.475A50.969 50.969 0 010 184.392v-88.95a50.969 50.969 0 0125.484-44.139"/></defs><mask id="b" fill="#fff"><use xlink:href="#a"/></mask><use fill="#FFF" xlink:href="#a"/><path d="M25.484 51.303l77.032-44.475a50.97 50.97 0 0150.968 0l77.032 44.475A50.967 50.967 0 01256 95.442v88.95a50.967 50.967 0 01-25.484 44.139l-77.032 44.475a50.97 50.97 0 01-50.968 0l-77.032-44.475A50.969 50.969 0 010 184.392v-88.95a50.969 50.969 0 0125.484-44.139" fill="#2F4154" mask="url(#b)"/><path d="M151.333 31.233L25.83 104.414l44.545 74.241 124.442-72.827-43.484-74.595zm45.78 66.708l-38.676-65.458 18.74 5.251a.362.362 0 01.215.165l23.891 40.053a.364.364 0 01.044.264l-4.214 19.725zM64.188 75.778l44.014-25.101-10.605-7.247-32.879 19.974-.53 12.374zM24.014 111.97l37.413 64.413-17.737-4.144a1.317 1.317 0 01-.825-.596l-23.642-38.656a1.321 1.321 0 01-.155-1.003l4.946-20.014zm147.34 40.092L129.48 194.91l17.187 29.469 41.715-43.025-17.027-29.292zm-11.36-19.544l-50.2 28.636 17.007 29.162 41.756-43.068-8.563-14.73zm31.167 53.617l-41.834 42.806 14.41 24.706 41.68-42.989-14.256-24.523zm17.016 29.272l-41.798 42.77 5.149 8.727 49.902-28.811-13.253-22.686z" fill="#FFF" mask="url(#b)"/></svg>
